svg/700/outlined/grain-fill.svg

<svg xmlns="http://www.w3.org/2000/svg" width="48" height="48" viewBox="0 -960 960 960"><path d="M202.159-126Q168-126 144-149.341q-24-23.34-24-57.5Q120-241 143.841-265q23.84-24 58-24Q236-289 259.5-265.159q23.5 23.84 23.5 58Q283-173 259.659-149.5q-23.34 23.5-57.5 23.5Zm379.752 0q-34.261 0-57.586-23.341Q501-172.681 501-206.841 501-241 524.549-265q23.548-24 58-24Q617-289 640.5-265.159q23.5 23.84 23.5 58Q664-173 640.293-149.5T581.911-126ZM389.372-302q-34.452 0-57.912-23.841-23.46-23.84-23.46-58Q308-418 331.549-441.5q23.548-23.5 58-23.5Q424-465 447.5-441.659q23.5 23.34 23.5 57.5Q471-350 447.411-326q-23.588 24-58.039 24Zm369.787 0Q725-302 701-325.841q-24-23.84-24-58Q677-418 701.089-441.5q24.088-23.5 58.247-23.5 34.16 0 57.912 23.341Q841-418.319 841-384.159 841-350 817.159-326q-23.84 24-58 24Zm-557-193Q168-495 144-518.549q-24-23.548-24-58Q120-611 143.841-634.5q23.84-23.5 58-23.5Q236-658 259.5-634.411q23.5 23.588 23.5 58.039 0 34.452-23.341 57.912-23.34 23.46-57.5 23.46Zm379.752 0q-34.261 0-57.586-23.549-23.325-23.548-23.325-58Q501-611 524.549-634.5q23.548-23.5 58-23.5Q617-658 640.5-634.411q23.5 23.588 23.5 58.039 0 34.452-23.707 57.912T581.911-495ZM389.372-671q-34.452 0-57.912-24.049-23.46-24.048-23.46-58.5Q308-788 331.549-811.5q23.548-23.5 58-23.5Q424-835 447.5-811.293t23.5 58.382q0 34.261-23.589 58.086Q423.823-671 389.372-671Zm369.787 0Q725-671 701-695.049q-24-24.048-24-58.5Q677-788 701.089-811.5q24.088-23.5 58.247-23.5 34.16 0 57.912 23.707Q841-787.586 841-752.911q0 34.261-23.841 58.086-23.84 23.825-58 23.825Z"/></svg>

<svg xmlns="http://www.w3.org/2000/svg" width="48" height="48" viewBox="0 -960 960 960"><path d="M202.16-126Q168-126 144-149.34t-24-57.5Q120-241 143.84-265t58-24q34.16 0 57.66 23.84t23.5 58q0 34.16-23.34 57.66t-57.5 23.5Zm379.75 0q-34.26 0-57.58-23.34Q501-172.68 501-206.84T524.55-265q23.55-24 58-24t57.95 23.84q23.5 23.84 23.5 58t-23.71 57.66q-23.7 23.5-58.38 23.5ZM389.37-302q-34.45 0-57.91-23.84-23.46-23.84-23.46-58t23.55-57.66q23.55-23.5 58-23.5t57.95 23.34q23.5 23.34 23.5 57.5T447.41-326q-23.59 24-58.04 24Zm369.79 0Q725-302 701-325.84t-24-58q0-34.16 24.09-57.66t58.25-23.5q34.16 0 57.91 23.34t23.75 57.5Q841-350 817.16-326t-58 24Zm-557-193Q168-495 144-518.55t-24-58q0-34.45 23.84-57.95t58-23.5q34.16 0 57.66 23.59t23.5 58.04q0 34.45-23.34 57.91Q236.32-495 202.16-495Zm379.75 0q-34.26 0-57.58-23.55-23.33-23.55-23.33-58t23.55-57.95q23.55-23.5 58-23.5t57.95 23.59q23.5 23.59 23.5 58.04t-23.71 57.91Q616.59-495 581.91-495ZM389.37-671q-34.45 0-57.91-24.05Q308-719.1 308-753.55t23.55-57.95q23.55-23.5 58-23.5t57.95 23.71q23.5 23.7 23.5 58.38 0 34.26-23.59 58.08Q423.82-671 389.37-671Zm369.79 0Q725-671 701-695.05t-24-58.5q0-34.45 24.09-57.95t58.25-23.5q34.16 0 57.91 23.71Q841-787.59 841-752.91q0 34.26-23.84 58.08-23.84 23.83-58 23.83Z"/></svg>
